X:1
T:Arabesque n1
C:Claude Debussy
L:1/8
Q:1/4=120
M:4/4
K:Emaj
V:1 treble nm="Piano" snm="Pno."
V:1
(3CEA (3cef (3gdB (3GDB, | (3A,CE (3Acd (3eBG (3EB,G, | z2 c2 f2 c2- | c2 c2 f2 a2- | 
 a2 a4- (3agf | z2 (3efc (3eBc (3GBF | (3GEG D4 C2 | B,2 (3efc (3eBc (3GBF | (3GEG D4 C2 | 
 (3B,A,B, C2- CEDE | C2 G4 E2 | (3DCD E2- EGFG | E2 c4 (3^AcA | G2 e4 (3cec | g3 f g3 f | 
 g3 f g f2 g | =a4 g4 | f4 e4 | d4 e2 gb | d4- dceg | B4- BAce | G4 (3z Ac (3egf | d2 G2 z FAc | 
 E4 (3z FA (3ce=d | G2 F4 =D2 | C8- | C2 C2 E2 C2 | F8- | F2 F2 A2 F2 | 
 B2 G2 B2 G2 | c8- | c2 A2 B2 c2 | c8- | c2 A2 B2 c2 | d2 e2 f2 g2 | a2 b2 c'2 d'2 | f'4 e'4 | 
 e8 |
